X:1
T:Title
%%score { ( 1 3 ) | ( 2 4 ) }
L:1/8
Q:1/4=100
M:4/4
K:Db
V:1 treble nm="Grand Piano"
V:3 treble 
V:2 bass 
V:4 bass 
V:1
 F2 F>_F =F3 F | BA D>[CE] [DF]4 | [EG]2 [EG]>[=DF] [EG]3 [FA] | [EAc][DGB][CE][_C=DF] [=CEG]4 | %4
w: D.~D.~Ford * * * *||||
 F2 F>_F =F3 F | [DB][A,DA][K:bass] [F,B,D]>[A,CE][K:treble] [A,DF]4 | [CF] [CE]2 [CE] [CG]2 C2 | %7
w: |||
 D6 z2 | F[FA][Fd][Af] [Fd]3 [FA] | Bd d>B [GB] [FA]3 | [DF][FA][Fd][Af] [Fd]3 [FA] | %11
w: ||||
 [GB][Ge] [=Ge]>[Gf] e4 | F[FA][Fd][Af] [Fd]3 [FA] | Be d>B [GB] [FA]3 | [EG]F[EG]A [GB]A[GB]c | %15
w: ||||
 [DFd]2 [Af]>[Ge] [Fd]4 |] %16
w: |
V:2
 [D,A,D]2 [D,A,D]>[D,=G,D] [D,A,D]3 [D,A,D] | [D,G,D][D,F,D] [B,,F,]>[A,,A,] [D,A,]4 | %2
 [A,,A,]2 [A,,A,]>[A,,A,] [A,,A,]3 [A,,A,] | A,,A,,A,,A,, A,,4 | %4
 [D,A,D]2 [D,A,D]>[D,=G,D] [D,A,D]3 [D,A,D] | [G,,G,]F,, B,,>A,, D,4 | %6
 [A,,A,] [A,,A,]2 [A,,A,] [A,,E,]2 [A,,G,A,]2 | [D,F,A,]6 z2 | %8
 [D,A,D][D,A,][D,A,][D,A,] [D,A,]3 [D,D] | [G,DG][G,B,G] [G,B,G]>[G,DG] [D,D] [D,D]3 | %10
 [D,A,][D,A,][D,A,][D,A,] [D,A,]3 [D,D] | [G,D][G,D] [E,D]>[E,D] [A,CA]4 | %12
 [D,A,][A,,A,][D,A,][A,,A,] [D,A,]3 [D,D] | [G,DG][G,CG] [G,B,G]>[G,DG] [D,D] [D,D]3 | %14
 z =D z F z F z G | D,2 [A,,C]2 [D,D]4 |] %16
V:3
 x8 | x8 | x8 | x8 | x8 | x2[K:bass] x2[K:treble] x4 | x8 | x8 | x8 | x8 | x8 | x8 | x8 | x8 | %14
 z2 C2 z2 E2 | x8 |] %16
V:4
 x8 | x8 | x8 | x8 | x8 | x8 | x8 | x8 | x8 | x8 | x8 | x8 | x8 | x8 | [C,A,]2 A,,2 [C,A,]2 A,,2 | %15
 x8 |] %16

